src/assets/icons/drawer/day.svg

<?xml version="1.0" encoding="UTF-8"?>
<svg width="24px" height="22px" viewBox="0 0 24 22" version="1.1" xmlns="http://www.w3.org/2000/svg" xmlns:xlink="http://www.w3.org/1999/xlink">
    <!-- Generator: Sketch 57.1 (83088) - https://sketch.com -->
    <title>icons/side menu/day</title>
    <desc>Created with Sketch.</desc>
    <g id="Symbols" stroke="none" stroke-width="1" fill="none" fill-rule="evenodd">
        <g id="icons/side-menu/day" fill="#9EA3BA">
            <path d="M20,18 C20.5522847,18 21,18.4477153 21,19 C21,19.5522847 20.5522847,20 20,20 L4,20 C3.44771525,20 3,19.5522847 3,19 C3,18.4477153 3.44771525,18 4,18 L20,18 Z M19,6 C20.1045695,6 21,6.8954305 21,8 L21,14 C21,15.1045695 20.1045695,16 19,16 L5,16 C3.8954305,16 3,15.1045695 3,14 L3,8 C3,6.8954305 3.8954305,6 5,6 L19,6 Z M19,8 L5,8 L5,14 L19,14 L19,8 Z M20,2 C20.5522847,2 21,2.44771525 21,3 C21,3.55228475 20.5522847,4 20,4 L4,4 C3.44771525,4 3,3.55228475 3,3 C3,2.44771525 3.44771525,2 4,2 L20,2 Z" id="Combined-Shape"></path>
        </g>
    </g>
</svg>

<svg xmlns="http://www.w3.org/2000/svg" width="24" height="22">
  <path fill="#9EA3BA" fill-rule="evenodd" d="M20 18a1 1 0 0 1 0 2H4a1 1 0 0 1 0-2h16zM19 6a2 2 0 0 1 2 2v6a2 2 0 0 1-2 2H5a2 2 0 0 1-2-2V8a2 2 0 0 1 2-2h14zm0 2H5v6h14V8zm1-6a1 1 0 0 1 0 2H4a1 1 0 1 1 0-2h16z"/>
</svg>
